public/icons/sensor-fusion.svg

<svg width="64" height="64" viewBox="0 0 64 64" fill="none" xmlns="http://www.w3.org/2000/svg">
<path d="M13.9453 4.0127C13.5478 4.01333 13.1595 4.13237 12.83 4.35463C12.5005 4.57689 12.2446 4.8923 12.0951 5.26059C11.9456 5.62889 11.9093 6.03338 11.9906 6.42244C12.072 6.8115 12.2675 7.1675 12.5521 7.44499L29.8229 24.7184C30.0072 24.9104 30.2279 25.0636 30.4722 25.1692C30.7164 25.2748 30.9793 25.3305 31.2454 25.3332C31.5115 25.336 31.7754 25.2855 32.0218 25.185C32.2681 25.0844 32.492 24.9357 32.6801 24.7475C32.8683 24.5593 33.017 24.3355 33.1176 24.0892C33.2182 23.8428 33.2686 23.5789 33.2659 23.3128C33.2631 23.0467 33.2074 22.7838 33.1018 22.5396C32.9962 22.2953 32.843 22.0746 32.651 21.8903L26.3255 15.5622C28.1171 14.9862 30.0248 14.6663 32 14.6663C42.2933 14.6663 50.6667 23.0397 50.6667 33.333C50.6667 43.6263 42.2933 51.9997 32 51.9997C21.7067 51.9997 13.3333 43.6263 13.3333 33.333C13.3333 27.9863 15.5872 23.1601 19.2005 19.7601L16.3854 16.9476C15.6057 17.6867 14.8998 18.4956 14.2318 19.3382L11.4141 16.5205C10.3741 15.4805 10.3741 13.7871 11.4141 12.7471C11.5474 12.6137 11.6945 12.4941 11.8411 12.4007L9.71874 10.2809C9.47874 10.0409 9.25436 9.77186 9.0677 9.49186C8.9077 9.61186 8.74593 9.75895 8.58593 9.91895C7.33259 11.1723 6.62759 12.8539 6.62759 14.6273C6.62759 16.4139 7.33259 18.0927 8.58593 19.346L11.9896 22.7497C10.3043 25.9122 9.33332 29.5091 9.33332 33.333C9.33332 37.1591 10.2939 40.7641 11.9766 43.9294L8.58593 47.3174C8.58593 47.3183 8.58593 47.3191 8.58593 47.32C5.99908 49.9068 5.99908 54.1602 8.58593 56.7471C11.1728 59.3339 15.4262 59.3339 18.013 56.7471L21.4036 53.3564C24.5689 55.0391 28.1739 55.9997 32 55.9997C35.826 55.9997 39.431 55.0391 42.5963 53.3564L45.9844 56.7471C45.9852 56.7471 45.9861 56.7471 45.987 56.7471C48.5738 59.3339 52.8272 59.3339 55.4141 56.7471C58.0009 54.1602 58.0009 49.9068 55.4141 47.32L52.0234 43.9294C53.7061 40.7641 54.6667 37.1591 54.6667 33.333C54.6667 29.507 53.7061 25.902 52.0234 22.7367L55.4141 19.3486C55.4141 19.3478 55.4141 19.3469 55.4141 19.346C58.0009 16.7592 58.0009 12.5058 55.4141 9.91895C54.1206 8.62559 52.4109 7.97884 50.7005 7.97884C48.9901 7.97884 47.2804 8.62552 45.987 9.91895L42.5963 13.3096C39.431 11.6269 35.826 10.6663 32 10.6663C28.8954 10.6663 25.9268 11.3086 23.2213 12.4606L15.3802 4.61686C15.1936 4.42535 14.9704 4.27321 14.7239 4.16944C14.4775 4.06567 14.2127 4.01237 13.9453 4.0127ZM50.7005 11.9528C51.3786 11.9528 52.0567 12.2178 52.5859 12.7471C53.6444 13.8056 53.6444 15.4594 52.5859 16.5179L49.7786 19.3226C48.6726 17.9223 47.4108 16.6577 46.0104 15.5518L48.8151 12.7471C49.3443 12.2178 50.0224 11.9528 50.7005 11.9528ZM23.3333 30.6663C23.0683 30.6626 22.8052 30.7116 22.5592 30.8104C22.3133 30.9092 22.0895 31.0559 21.9007 31.242C21.712 31.4281 21.5621 31.6499 21.4598 31.8944C21.3575 32.1389 21.3048 32.4013 21.3048 32.6663C21.3048 32.9314 21.3575 33.1938 21.4598 33.4383C21.5621 33.6828 21.712 33.9046 21.9007 34.0907C22.0895 34.2768 22.3133 34.4235 22.5592 34.5223C22.8052 34.6211 23.0683 34.6701 23.3333 34.6663H40.6667C40.9317 34.6701 41.1948 34.6211 41.4407 34.5223C41.6867 34.4235 41.9105 34.2768 42.0993 34.0907C42.288 33.9046 42.4379 33.6828 42.5402 33.4383C42.6425 33.1938 42.6951 32.9314 42.6951 32.6663C42.6951 32.4013 42.6425 32.1389 42.5402 31.8944C42.4379 31.6499 42.288 31.4281 42.0993 31.242C41.9105 31.0559 41.6867 30.9092 41.4407 30.8104C41.1948 30.7116 40.9317 30.6626 40.6667 30.6663H23.3333ZM23.3333 38.6663C23.0683 38.6626 22.8052 38.7116 22.5592 38.8104C22.3133 38.9092 22.0895 39.0559 21.9007 39.242C21.712 39.4281 21.5621 39.6499 21.4598 39.8944C21.3575 40.1389 21.3048 40.4013 21.3048 40.6663C21.3048 40.9314 21.3575 41.1938 21.4598 41.4383C21.5621 41.6828 21.712 41.9046 21.9007 42.0907C22.0895 42.2768 22.3133 42.4235 22.5592 42.5223C22.8052 42.6211 23.0683 42.6701 23.3333 42.6663H32.6667C32.9317 42.6701 33.1948 42.6211 33.4407 42.5223C33.6867 42.4235 33.9105 42.2768 34.0993 42.0907C34.288 41.9046 34.4379 41.6828 34.5402 41.4383C34.6425 41.1938 34.6951 40.9314 34.6951 40.6663C34.6951 40.4013 34.6425 40.1389 34.5402 39.8944C34.4379 39.6499 34.288 39.4281 34.0993 39.242C33.9105 39.0559 33.6867 38.9092 33.4407 38.8104C33.1948 38.7116 32.9317 38.6626 32.6667 38.6663H23.3333ZM14.2213 47.3434C15.3274 48.7438 16.5892 50.0083 17.9896 51.1143L15.1849 53.9189C14.1264 54.9774 12.4725 54.9774 11.4141 53.9189C10.3556 52.8605 10.3556 51.2066 11.4141 50.1481L14.2213 47.3434ZM49.7812 47.3434L52.5859 50.1481C53.6444 51.2066 53.6444 52.8605 52.5859 53.9189C51.5274 54.9774 49.8736 54.9774 48.8151 53.9189L46.0104 51.1117C47.4107 50.0056 48.6753 48.7438 49.7812 47.3434Z" fill="white"/>
</svg>

<svg xmlns="http://www.w3.org/2000/svg" fill="none" width="64" height="64" viewBox="0 0 64 64"><path d="M13.946 4.013a2 2 0 0 0-1.394 3.432l17.271 17.273a2 2 0 1 0 2.828-2.828l-6.325-6.328c1.791-.576 3.7-.896 5.674-.896 10.294 0 18.667 8.374 18.667 18.667C50.667 43.626 42.294 52 32 52c-10.293 0-18.666-8.374-18.666-18.667A18.585 18.585 0 0 1 19.2 19.76l-2.815-2.812a22.707 22.707 0 0 0-2.154 2.39l-2.818-2.818a2.672 2.672 0 0 1 .428-4.12l-2.123-2.12a5.25 5.25 0 0 1-.651-.788c-.16.12-.322.267-.482.427a6.642 6.642 0 0 0-1.958 4.708c0 1.787.705 3.466 1.958 4.719l3.404 3.404a22.434 22.434 0 0 0-2.656 10.583c0 3.826.96 7.431 2.643 10.596l-3.39 3.388v.003c-2.588 2.587-2.588 6.84 0 9.427 2.586 2.587 6.84 2.587 9.426 0l3.391-3.39A22.509 22.509 0 0 0 32 56c3.826 0 7.431-.96 10.597-2.644l3.388 3.391h.002c2.587 2.587 6.84 2.587 9.427 0 2.587-2.587 2.587-6.84 0-9.427l-3.39-3.39a22.509 22.509 0 0 0 2.643-10.597c0-3.826-.96-7.431-2.643-10.596l3.39-3.388v-.003c2.587-2.587 2.587-6.84 0-9.427a6.645 6.645 0 0 0-4.713-1.94 6.65 6.65 0 0 0-4.714 1.94l-3.39 3.39A22.509 22.509 0 0 0 32 10.667c-3.104 0-6.073.643-8.778 1.795L15.38 4.617a2 2 0 0 0-1.434-.604zm36.755 7.94c.678 0 1.356.265 1.885.794a2.636 2.636 0 0 1 0 3.77l-2.807 2.806a22.83 22.83 0 0 0-3.768-3.771l2.804-2.805a2.658 2.658 0 0 1 1.886-.794zM23.334 30.666a2.001 2.001 0 1 0 0 4h17.333a2 2 0 1 0 0-4H23.334zm0 8a2.001 2.001 0 1 0 0 4h9.333a2 2 0 1 0 0-4h-9.333zm-9.112 8.677a22.83 22.83 0 0 0 3.768 3.771l-2.805 2.805a2.636 2.636 0 0 1-3.77 0 2.636 2.636 0 0 1 0-3.77l2.807-2.806zm35.56 0 2.804 2.805a2.636 2.636 0 0 1 0 3.77 2.636 2.636 0 0 1-3.77 0l-2.805-2.806a22.835 22.835 0 0 0 3.77-3.769z" fill="#fff"/></svg>
